X:1
T:Title
%%score ( 1 2 ) { 3 | 4 }
L:1/8
M:3/4
K:G
V:1 treble nm="Grand Piano, Staff 1"
V:2 treble 
V:3 bass nm="Choir Pad, Lydia (Stebbins), 87.87"
V:4 bass 
V:1
 [EG]4 [^DA]2 | [EG]4 [Gc]2 | d2 z2 z2 | [=FA]4 [EG]2 | [Ec]4 [CG]2 | =F4 z2 | D2 G2 [DF]2 | %7
w: By~George~Coles~Stebbins~(1846\-1945) *|||||||
 [DG]6 | [EG]4 [^DA]2 | G2 c2 [Ge]2 | d2 A2 [=FB]2 | [Ed]4 [Ec]2 | [=Fc]4 [FA]2 | G2 c2 [A=f]2 | %14
w: |||||||
 e2- [Fe]2 [=Fd]2 | [Ec]6- | [Ec]2 z2 z2 |] %17
w: |||
V:2
 x6 | x6 | =F2- [FA]2 [FB]2 | x6 | x6 | C2 B,2 [CE]2 | x6 | x6 | x6 | E4 z2 | =F4 z2 | x6 | x6 | %13
 x6 | G2 z2 z2 | x6 | x6 |] %17
V:3
 C2 G,2 F,2 | G,2 C2[K:treble] C2 | B,2 C2 D2 | C4 C2 | G,4 G,2 | A,2 G,2 G,2 | G,4 C2 | B,6 | %8
 C2 G,2 F,2 | G,4[K:treble] C2 | B,2 C2 D2 | C4 A,2 | A,4 C2 | C4 C2 | C4 B,2 | C6- | C2 z2 z2 |] %17
V:4
 C,4 C,2 | C,4 E,2 | G,4 G,,2 | C,4 C,2 | C,4 E,2 | D,4 C,2 | B,,4 A,,2 | G,,6 | C,4 C,2 | %9
 C,4 C,2 | G,4 ^G,2 | A,4 z2 | =F,4 F,2 | E,4 D,2 | G,2 A,2 G,2 | C,6- | C,2 z2 z2 |] %17

